frontend/public/svg/interface/pencil-ruler.svg

<svg width="86" height="158" viewBox="0 0 86 158" fill="none" xmlns="http://www.w3.org/2000/svg">
<g clip-path="url(#clip0)">
<path d="M85.3942 113.814C84.6035 88.4703 83.6633 62.5992 82.5216 34.7219C82.2254 27.4986 81.6317 20.1716 81.0579 13.0862C80.9189 11.3741 80.7817 9.66185 80.6458 7.94929C80.2318 2.70422 77.41 0.119878 72.017 0.0577145C71.8007 0.0512391 71.5805 0.0614846 71.3628 0.069255L65.6356 0.172331C60.7096 0.258669 55.7837 0.351038 50.858 0.449464C49.4991 0.448798 48.1431 0.577378 46.8082 0.833466C43.5885 1.53022 42.5924 2.66985 42.3651 5.91468C42.2456 8.03192 42.2358 10.1538 42.3356 12.2721C42.9029 29.3381 43.4831 46.4041 44.0929 64.3345L44.6118 79.6087C44.6595 82.5712 44.7193 85.6885 44.7811 88.9152C44.9331 96.8844 45.0903 105.125 45.127 113.546C45.1554 120.005 45.0818 126.576 45.0104 132.929C44.9569 137.754 44.9015 142.743 44.8906 147.652C44.8745 154.626 47.5468 157.4 54.4209 157.547C55.1717 157.564 55.922 157.571 56.6715 157.571C60.8333 157.571 64.9783 157.343 69.0008 157.122C73.5586 156.872 77.2297 156.529 80.5557 156.042C84.1379 155.518 85.5494 153.739 85.4297 149.9L85.4239 149.693C85.2951 145.646 85.1663 141.459 85.183 137.349C85.1946 134.453 85.2622 131.504 85.3266 128.652C85.4355 123.788 85.5494 118.758 85.3942 113.814ZM53.571 136.908C54.0005 136.84 54.4178 136.779 54.8261 136.714C56.0965 136.52 57.2961 136.342 58.4758 136.052C61.8565 135.225 62.5668 133.207 62.5674 131.661C62.5674 130.063 61.8494 128.023 58.4197 127.387C57.3302 127.184 56.2233 126.939 55.0519 126.68C54.6579 126.594 54.2522 126.504 53.8317 126.412V118.059C54.0397 118.037 54.2464 118.016 54.4525 117.994C55.373 117.92 56.2884 117.792 57.1938 117.61L57.7913 117.48C59.0728 117.292 60.3087 116.868 61.4373 116.228C62.0355 115.851 62.5152 115.311 62.8206 114.67C63.1259 114.03 63.2443 113.316 63.1624 112.611C63.056 111.805 62.7281 111.045 62.2156 110.416C61.7031 109.787 61.0264 109.315 60.2615 109.052C58.7161 108.526 57.1297 108.13 55.5189 107.869C54.9464 107.759 54.3643 107.647 53.7744 107.522V99.4979L54.8273 99.2959C56.0237 99.0654 57.2582 98.8277 58.4946 98.605C59.3748 98.4457 62.0549 97.9626 62.205 95.173C62.3627 92.2189 59.5686 91.5435 58.517 91.2878C57.2459 90.9802 55.9548 90.7801 54.589 90.5677C54.1479 90.4997 53.6978 90.4291 53.2367 90.354V82.2086L53.435 82.1872C54.1806 82.1199 54.9217 82.0104 55.6547 81.8576C55.8936 81.8045 56.1416 81.7572 56.3914 81.7093C57.4523 81.6077 58.4677 81.2263 59.3355 80.604C60.2409 79.8056 61.4264 78.0099 61.0967 76.6896C60.8419 75.9423 60.425 75.2611 59.8763 74.6952C59.3276 74.1299 58.6608 73.6934 57.924 73.4189C56.594 73.0621 55.2192 72.9015 53.8433 72.9429C53.4196 72.9339 52.9869 72.9241 52.5464 72.9047V63.9162C52.8117 63.8838 53.0828 63.8515 53.3578 63.8204C54.5117 63.6857 55.7057 63.5464 56.9118 63.3366C59.5751 62.873 61.0735 61.3792 60.9183 59.3414C60.7251 56.7817 58.799 56.1192 56.9426 55.8084C56.5987 55.7508 56.2562 55.6847 55.9124 55.6193C55.3837 55.5183 54.855 55.4166 54.3225 55.3434C53.7211 55.2592 53.1176 55.2074 52.4189 55.1491L51.9296 55.1058V46.1367L52.7532 45.9068C53.837 45.6044 55.0102 45.2787 56.177 44.9309C57.4507 44.5521 60.4334 43.6656 60.1327 40.4927C59.8526 37.5185 57.1705 37.1514 55.3926 36.9086C54.3391 36.7648 53.2773 36.7053 52.1529 36.6431C51.8116 36.6231 51.4621 36.6036 51.1028 36.5783L50.4659 27.6669C50.8922 27.6022 51.3101 27.5406 51.7209 27.4797C53.0513 27.2854 54.3083 27.097 55.5646 26.8594C59.387 26.1354 59.7734 23.8633 59.6627 22.5734C59.4012 19.4995 56.6399 19.0286 55.4602 18.8272C54.8433 18.723 54.2188 18.6473 53.6147 18.5748C53.2413 18.5295 52.8671 18.4841 52.4949 18.4323C51.9192 18.352 51.3442 18.2633 50.6488 18.1571L50.0332 18.0625L49.6088 10.2887L73.0564 9.49562C73.2566 13.6969 73.4588 17.8946 73.6629 22.089C75.636 62.8277 77.676 104.947 76.3945 146.571L53.5729 147.469L53.571 136.908Z" fill="black"/>
<path d="M2.73321 116.145C2.8987 121.557 3.35 126.956 4.08539 132.32C4.82978 137.987 8.27934 142.233 14.06 144.6C16.1087 145.464 18.305 145.919 20.5264 145.939C24.1432 145.954 27.6265 144.565 30.25 142.062C34.6011 137.988 37.0531 132.856 37.1542 127.613C37.2141 124.484 37.0384 121.312 36.8684 118.245C36.7751 116.556 36.6752 114.81 36.6224 113.095C36.3082 103.446 36.0099 93.791 35.6448 81.9947L35.1478 65.9597L35.0498 60.2748C34.9159 52.6377 34.7324 42.1786 34.5991 31.6839C34.6085 29.3379 33.8669 27.0511 32.4838 25.1619C31.0188 23.1085 29.6177 20.9477 28.2628 18.8581C27.5436 17.7489 26.8242 16.6403 26.0921 15.5401L24.8859 13.7269C23.0011 10.8888 21.0513 7.95353 19.0744 5.10435C17.4871 2.81853 15.8489 2.36853 14.7561 2.4048C13.6634 2.44106 12.0736 2.95903 10.635 5.29406C9.84843 6.66965 9.19844 8.11982 8.69468 9.62354L8.47066 10.2309C6.47766 15.6243 4.41378 21.2015 2.50965 26.7315C1.82454 28.5354 1.43848 30.4401 1.36672 32.3697C1.31456 39.0251 1.36278 46.0769 1.5244 55.2338L1.62361 60.8375C1.94043 78.9636 2.2715 97.7092 2.73321 116.145ZM12.2325 24.1874L13.5681 20.1551C14.2017 20.1072 14.8251 20.0223 15.4311 19.9394C16.9005 19.7374 18.2889 19.5509 19.1807 20.0139C20.1743 20.5319 20.8993 21.741 21.7403 23.1416C21.9463 23.4861 22.1562 23.8358 22.3771 24.1874H12.2325ZM22.6644 136.452C21.645 136.625 20.6009 136.579 19.6 136.319C18.5991 136.059 17.6641 135.589 16.856 134.941C14.353 132.879 13.3556 130.121 12.6744 126.393L29.1063 124.991C29.2229 128.131 28.3788 131.232 26.6877 133.874C26.2419 134.571 25.6515 135.161 24.9571 135.606C24.2628 136.051 23.4808 136.34 22.665 136.452H22.6644ZM12.767 115.69L10.6362 34.8227H24.4256L27.0091 115.69H12.767Z" fill="black"/>
</g>
<defs>
<clipPath id="clip0">
<rect width="85" height="158" fill="white" transform="translate(0.777344)"/>
</clipPath>
</defs>
</svg>

<svg xmlns="http://www.w3.org/2000/svg" width="86" height="158" fill="none" viewBox="0 0 86 158"><g fill="#000" clip-path="url(#a)"><path d="M85.394 113.814c-.79-25.344-1.73-51.215-2.872-79.092-.297-7.223-.89-14.55-1.464-21.636q-.209-2.568-.412-5.137C80.232 2.704 77.41.12 72.017.058c-.216-.007-.436.003-.654.011l-5.727.103q-7.389.13-14.778.277a21.4 21.4 0 0 0-4.05.384c-3.22.697-4.216 1.837-4.443 5.082a61 61 0 0 0-.03 6.357c.568 17.066 1.148 34.132 1.758 52.063l.519 15.274c.047 2.962.107 6.08.17 9.306.151 7.97.308 16.21.345 24.631.028 6.459-.045 13.03-.117 19.383-.053 4.825-.108 9.814-.12 14.723-.016 6.974 2.657 9.748 9.53 9.895q1.128.025 2.252.024c4.161 0 8.306-.228 12.329-.449 4.558-.25 8.229-.593 11.555-1.08 3.582-.524 4.993-2.303 4.874-6.142l-.006-.207c-.129-4.047-.258-8.234-.241-12.344.012-2.896.08-5.845.144-8.697.109-4.864.222-9.894.067-14.838m-31.823 23.094c.43-.068.847-.129 1.255-.194 1.27-.194 2.47-.372 3.65-.662 3.38-.827 4.09-2.845 4.091-4.391 0-1.598-.718-3.638-4.147-4.274-1.09-.203-2.197-.448-3.368-.707l-1.22-.268v-8.353l.62-.065q1.382-.111 2.742-.384l.597-.13a10.5 10.5 0 0 0 3.646-1.252 3.74 3.74 0 0 0 1.384-1.558c.305-.64.423-1.354.341-2.059a4.4 4.4 0 0 0-.946-2.195 4.34 4.34 0 0 0-1.955-1.364 29 29 0 0 0-4.742-1.183 93 93 0 0 1-1.745-.347v-8.024l1.053-.202c1.197-.23 2.431-.468 3.668-.691.88-.16 3.56-.642 3.71-3.432.158-2.954-2.636-3.63-3.688-3.885-1.271-.308-2.562-.508-3.928-.72q-.661-.102-1.352-.214v-8.145l.198-.022a19 19 0 0 0 2.22-.33q.36-.077.736-.148a6.04 6.04 0 0 0 2.945-1.105c.905-.798 2.09-2.594 1.76-3.914a5.34 5.34 0 0 0-1.22-1.995 5.3 5.3 0 0 0-1.952-1.276 14.1 14.1 0 0 0-4.08-.476 57 57 0 0 1-1.298-.038v-8.989l.812-.096c1.154-.134 2.348-.274 3.554-.483 2.663-.464 4.162-1.958 4.006-3.996-.193-2.56-2.119-3.222-3.975-3.533a41 41 0 0 1-1.03-.189c-.53-.1-1.058-.202-1.59-.276a34 34 0 0 0-1.904-.194l-.49-.043v-8.97l.824-.23c1.084-.302 2.257-.627 3.424-.975 1.274-.379 4.256-1.265 3.956-4.438-.28-2.974-2.963-3.342-4.74-3.584-1.054-.144-2.116-.204-3.24-.266q-.51-.029-1.05-.065l-.637-8.911q.639-.097 1.255-.187a93 93 0 0 0 3.844-.62c3.822-.725 4.208-2.997 4.098-4.287-.262-3.073-3.023-3.544-4.203-3.746a39 39 0 0 0-1.845-.252c-.374-.046-.748-.09-1.12-.143-.576-.08-1.15-.169-1.846-.275l-.616-.095-.424-7.773 23.447-.793q.3 6.301.607 12.593c1.973 40.739 4.013 82.858 2.731 124.482l-22.821.898zM2.733 116.145a154 154 0 0 0 1.352 16.175c.745 5.667 4.194 9.913 9.975 12.28a17 17 0 0 0 6.466 1.339c3.617.015 7.1-1.374 9.724-3.877 4.351-4.074 6.803-9.206 6.904-14.449.06-3.129-.116-6.301-.286-9.368-.093-1.689-.193-3.435-.246-5.15-.314-9.649-.612-19.304-.977-31.1l-.497-16.035-.098-5.685c-.134-7.637-.318-18.096-.45-28.591a10.97 10.97 0 0 0-2.116-6.522c-1.465-2.053-2.866-4.214-4.221-6.304a333 333 0 0 0-2.17-3.318l-1.207-1.813C23 10.889 21.05 7.954 19.074 5.104c-1.587-2.285-3.225-2.735-4.318-2.7-1.093.037-2.682.555-4.121 2.89a24 24 0 0 0-1.94 4.33l-.224.607C6.478 15.624 4.414 21.2 2.51 26.73a17.7 17.7 0 0 0-1.143 5.639c-.052 6.655-.004 13.707.157 22.864l.1 5.603c.316 18.127.648 36.872 1.11 55.308m9.5-91.958 1.335-4.032a31 31 0 0 0 1.863-.216c1.47-.202 2.858-.388 3.75.075.993.518 1.718 1.727 2.56 3.128q.306.517.636 1.045zm10.431 112.265a7.32 7.32 0 0 1-5.808-1.511c-2.503-2.062-3.5-4.82-4.182-8.548l16.432-1.402a15.4 15.4 0 0 1-2.418 8.883 5.71 5.71 0 0 1-4.023 2.578m-9.897-20.762-2.13-80.867h13.789l2.583 80.867z"/></g><defs><clipPath id="a"><path fill="#fff" d="M.777 0h85v158h-85z"/></clipPath></defs></svg>
